icons/report-16.svg

<svg xmlns="http://www.w3.org/2000/svg" width="16" height="16" viewBox="0 0 16 16">
  <defs/>
  <path d="M0,1.75 C0,0.784 0.784,0 1.75,0 L14.25,0 C15.216,0 16,0.784 16,1.75 L16,11.25 C16,12.216 15.216,13 14.25,13 L8.06,13 L5.487,15.573 C5.07,15.989 4.444,16.114 3.899,15.889 C3.355,15.663 3,15.132 3,14.543 L3,13 L1.75,13 C0.784,13 0,12.216 0,11.25 Z M1.75,1.5 C1.612,1.5 1.5,1.612 1.5,1.75 L1.5,11.25 C1.5,11.388 1.612,11.5 1.75,11.5 L3.75,11.5 C4.164,11.5 4.5,11.836 4.5,12.25 L4.5,14.44 L7.22,11.72 C7.361,11.579 7.551,11.5 7.75,11.5 L14.25,11.5 C14.388,11.5 14.5,11.388 14.5,11.25 L14.5,1.75 C14.5,1.612 14.388,1.5 14.25,1.5 Z M8.75,3.75 L8.75,6.25 C8.75,6.664 8.414,7 8,7 C7.586,7 7.25,6.664 7.25,6.25 L7.25,3.75 C7.25,3.336 7.586,3 8,3 C8.414,3 8.75,3.336 8.75,3.75 Z M9,9 C9,9.552 8.552,10 8,10 C7.448,10 7,9.552 7,9 C7,8.448 7.448,8 8,8 C8.552,8 9,8.448 9,9 Z"/>
</svg>

<svg xmlns="http://www.w3.org/2000/svg" width="16" height="16" viewBox="0 0 16 16"><path fill-rule="evenodd" d="M1.75 1.5a.25.25 0 00-.25.25v9.5c0 .138.112.25.25.25h2a.75.75 0 01.75.75v2.19l2.72-2.72a.75.75 0 01.53-.22h6.5a.25.25 0 00.25-.25v-9.5a.25.25 0 00-.25-.25H1.75zM0 1.75C0 .784.784 0 1.75 0h12.5C15.216 0 16 .784 16 1.75v9.5A1.75 1.75 0 0114.25 13H8.06l-2.573 2.573A1.457 1.457 0 013 14.543V13H1.75A1.75 1.75 0 010 11.25v-9.5zM9 9a1 1 0 11-2 0 1 1 0 012 0zm-.25-5.25a.75.75 0 00-1.5 0v2.5a.75.75 0 001.5 0v-2.5z"/></svg>
